launcher/android/assets/skins/day/svg/myLocationCar.svg

<svg enable-background="new 0 0 161.67 256.67" height="256.667" viewBox="0 0 161.67 256.67" width="161.667" xmlns="http://www.w3.org/2000/svg" xmlns:xlink="http://www.w3.org/1999/xlink"><linearGradient id="a" gradientUnits="objectBoundingBox" x1="-.016165" x2="1.01616" y1=".500001" y2=".500001"><stop offset=".0344828" stop-color="#ef0"/><stop offset=".5" stop-color="#d9ff00"/><stop offset="1" stop-color="#f8e6e6"/></linearGradient><linearGradient id="b" gradientUnits="objectBoundingBox" x1="-.500001" x2="1.5" y1=".499999" y2=".499999"><stop offset="0" stop-opacity=".776471"/><stop offset=".426724" stop-color="#727a00" stop-opacity=".776471"/><stop offset=".752898" stop-color="#b0bc00" stop-opacity=".560784"/><stop offset="1" stop-color="#ef0" stop-opacity=".345098"/></linearGradient><path d="m3.5 251.834 77.3333-248.33388 77.3337 249.66688-78.0004-53z" fill="url(#a)" stroke="#000" stroke-linejoin="round" stroke-width="7"/><path d="m8.03644 245.714 72.79656-234.0471-.8485 185.5471z" fill="url(#b)" stroke-linejoin="round" stroke-width=".2"/><path d="m14.3303 237.072 66.3332-214.1559 65.0415 213.5209-65.1456-43.25z" fill="none" stroke="#f00" stroke-width="7"/></svg>

﻿<?xml version="1.0" encoding="utf-8"?>
<!DOCTYPE svg PUBLIC "-//W3C//DTD SVG 1.1//EN" "http://www.w3.org/Graphics/SVG/1.1/DTD/svg11.dtd">
<svg xmlns="http://www.w3.org/2000/svg" xmlns:xlink="http://www.w3.org/1999/xlink" version="1.1" baseProfile="full" width="161.667" height="256.667" viewBox="0 0 161.67 256.67" enable-background="new 0 0 161.67 256.67" xml:space="preserve">
	<g>
		<linearGradient id="SVGID_Fill1_" gradientUnits="objectBoundingBox" x1="-0.016165" y1="0.500001" x2="1.01616" y2="0.500001">
			<stop offset="0.0344828" stop-color="#EEFF00" stop-opacity="1"/>
			<stop offset="0.5" stop-color="#D9FF00" stop-opacity="1"/>
			<stop offset="1" stop-color="#F8E6E6" stop-opacity="1"/>
		</linearGradient>
		<path fill="url(#SVGID_Fill1_)" stroke-width="7" stroke-linejoin="round" stroke="#000000" stroke-opacity="1" d="M 3.5,251.834L 80.8333,3.50012L 158.167,253.167L 80.1666,200.167L 3.5,251.834 Z "/>
		<linearGradient id="SVGID_Fill2_" gradientUnits="objectBoundingBox" x1="-0.500001" y1="0.499999" x2="1.5" y2="0.499999">
			<stop offset="0" stop-color="#000000" stop-opacity="0.776471"/>
			<stop offset="0.426724" stop-color="#727A00" stop-opacity="0.776471"/>
			<stop offset="0.752898" stop-color="#B0BC00" stop-opacity="0.560784"/>
			<stop offset="1" stop-color="#EEFF00" stop-opacity="0.345098"/>
		</linearGradient>
		<path fill="url(#SVGID_Fill2_)" stroke-width="0.2" stroke-linejoin="round" d="M 8.03644,245.714L 80.833,11.6669L 79.9845,197.214L 8.03644,245.714 Z "/>
	</g>
	<path fill="none" stroke-width="7" stroke-linejoin="miter" stroke="#FF0000" stroke-opacity="1" d="M 14.3303,237.072L 80.6635,22.9161L 145.705,236.437L 80.5594,193.187L 14.3303,237.072 Z "/>
</svg>
